X: 624
T: Grey Eagle
C:Traditional, arr. Bill Monroe
B: jims roots
M:C|
L:1/8
Q: 1/4=100
K:A
V:1 
AA || "A"ABAA EEEE | EFAA =cBcB | ABAA EDEF | "E"FAAc "A"Az [Ae][Ae] |
ABAA ECEE | EFFA A=c^ce | "E"efaa afed | "A"cAcB A2 FA |
ABAA ECEE | EFFA =cBcB | ABAE EDDE | "E"EFAA "A"A2 AA |
ABAF ECEE | EFAA Acce | "E"efaa afed | "A"cABA A2 af ||
ecce e=c^ce | e=c^ce aeaf | ecce ecce | ecc(c "E"[Be)]BBe |
"A7"ecce ecce | e=c^ca a2 aa | "E"abaf efed | "A"cABA A2 af |
ecce e=c^ce | ecce aeaf | ecce ecce | ecc[ce] "E"[Be][Be][Be]e |
"A"ecce ecce | e=c^ce a2 aa | "E"aaaf efec | "A"cAcB zA2A, ||
A,CEF AAAe | e2A2!slide!cccA | cAcB AEEF | "E"FAAc "A"AFEC |
A,CEE EAAe | e2A2!slide!cccA | cAcB AEEF | "E"FAAc "A"A2!slide![A,E][A,E] |
A,CEE EEEe | e2A2!slide!cccA | cAcB AEEE | "E"EF[FA]B "A"A2z2|]
V:A,E 
CEF [Ae][Ae][Ae]e | e2A2!slide!cccA | cAcB AEEF | "E"FAAc "A"AFEC |
% abcbook-tune_id 6298c25dda4811bc84ef2f23


% abcbook-boost 0
% abcbook-tablature 
% abcbook-transpose 
% abcbook-lastupdated 1654178398492
% abcbook-soundfonts 
% abcbook-repeats 1


